icons/pod.svg

<!--
  - The MIT License (MIT)
  -
  - Copyright (c) 2015-2024 Elior "Mallowigi" Boukhobza
  -
  - Permission is hereby granted, free of charge, to any person obtaining a copy
  - of this software and associated documentation files (the "Software"), to deal
  - in the Software without restriction, including without limitation the rights
  - to use, copy, modify, merge, publish, distribute, sublicense, and/or sell
  - copies of the Software, and to permit persons to whom the Software is
  - furnished to do so, subject to the following conditions:
  -
  - The above copyright notice and this permission notice shall be included in all
  - copies or substantial portions of the Software.
  -
  - THE SOFTWARE IS PROVIDED "AS IS", WITHOUT WARRANTY OF ANY KIND, EXPRESS OR
  - IMPLIED, INCLUDING BUT NOT LIMITED TO THE WARRANTIES OF MERCHANTABILITY,
  - FITNESS FOR A PARTICULAR PURPOSE AND NONINFRINGEMENT. IN NO EVENT SHALL THE
  - AUTHORS OR COPYRIGHT HOLDERS BE LIABLE FOR ANY CLAIM, DAMAGES OR OTHER
  - LIABILITY, WHETHER IN AN ACTION OF CONTRACT, TORT OR OTHERWISE, ARISING FROM,
  - OUT OF OR IN CONNECTION WITH THE SOFTWARE OR THE USE OR OTHER DEALINGS IN THE
  - SOFTWARE.
  -
  -->

<svg  version="1.1" xmlns="http://www.w3.org/2000/svg" viewBox="0 0 512 512" width="16px" height="16px">
  <path fill="#90A4AE" data-iconColor="Pod"
        d="M199.7702484,496.8551331H35.4066772C15.9330082,496.8551331,0,480.9221191,0,461.4484558V36.5677567C0,17.0940857,15.9330082,1.1610773,35.4066772,1.1610773h265.5505066L424.8807678,125.08461v97.3434753c-30.2977905-18.8043365-28.6865845-16.387558-35.4067383-40.0793457v-39.5608215L283.2538147,36.5677567H35.4066772v424.8807068h133.6137085C178.7664948,476.2478638,187.8869476,486.8705139,199.7702484,496.8551331z M266.0646057,213.6013947H70.8134232v35.4067535h144.3974915C229.7236176,237.6918945,246.8817291,225.8484039,266.0646057,213.6013947z M145.2310028,355.228302H70.8134232v35.4066772h72.9031754C142.776001,378.2333679,143.0619812,366.3404236,145.2310028,355.228302z M70.8134232,107.3812408v35.4066772h141.6269531v-35.4066772H70.8134232z M178.8763428,284.4148254H70.8134232v35.4067383h85.6528549C162.1923981,307.7255249,169.3024902,295.8626404,178.8763428,284.4148254z M311.2782593,146.0057526c0.4777527-2.7485504,11.5664062,3.4677734,11.5664062,8.7285156c-0.1622009,23.0425873-2.135376,40.0737457-3.6400146,51.8786926c-3.3251343,30.497757-44.9221802,64.674057-82.2881927,117.4106903c-37.2214355,55.4429321-18.0783386,116.9578247,38.4272003,160.5463257c9.8400879,7.5906677,35.8468018,13.9469299,32.8190308,22.1518555c-5.4119873,9.5185852-63.4382172-11.3991699-93.2550507-45.8980103c-38.5425415-44.594696-67.6597443-132.5793152,58.8341522-209.4848785c11.7966614-11.3124847,22.5594788-16.5289001,34.2040405-47.5810547C310.4777527,197.0060883,311.8303223,170.9960785,311.2782593,146.0057526z M334.6382141,122.267128c2.6566162,0.8475647,9.0384521,4.9812927,10.6072693,8.3803024c2.4954529,9.9176788,1.5549011,100.5889435-2.5200195,117.3213654c-3.5298157,34.0679779-55.8230896,74.8785858-51.9018555,133.7881927c4.6962585,70.5521545,49.523407,96.221405,45.6855469,113.0048523c-14.1885071,10.1130371-79.1406555-60.2756042-77.4830933-117.6374512c-0.2192383-68.5023499,60.0827637-80.65271,71.1718445-151.2009125C332.634613,200.8163452,332.2881775,136.3753052,334.6382141,122.267128z M350.0627747,489.9842224c-31.0179138-62.6376953-28.4833679-123.8143921-8.895874-179.4428101c10.9689941-30.556488,24.2884827-50.1439819,15.8653259-148.2757263c0,0,10.635498-0.6061249,11.0465088,4.05867c0.1706543,56.3703156,0.3709412,56.6021729,44.5572815,84.8090973c38.4075928,24.0021973,90.4495544,55.780426,97.7554932,105.009613c9.5508728,64.3563232-23.4815674,120.0183716-97.7555542,150.4657593C387.5133362,520.4603271,398.4850464,496.4069519,350.0627747,489.9842224z"/>
</svg>

<svg xmlns="http://www.w3.org/2000/svg" viewBox="0 0 512 512"><path fill="#90a4ae" d="M199.77 496.855H35.407C15.933 496.855 0 480.922 0 461.448V36.568C0 17.094 15.933 1.16 35.407 1.16h265.55l123.924 123.924v97.343c-30.298-18.804-28.687-16.387-35.407-40.08v-39.56l-106.22-106.22H35.407v424.88H169.02c9.746 14.8 18.867 25.423 30.75 35.407M266.065 213.6H70.813v35.407h144.398c14.513-11.316 31.67-23.16 50.854-35.407M145.23 355.228H70.813v35.407h72.904c-.941-12.402-.655-24.295 1.514-35.407M70.813 107.381v35.407H212.44V107.38zm108.063 177.034H70.813v35.407h85.653c5.726-12.096 12.836-23.96 22.41-35.407m132.402-138.41c.478-2.748 11.567 3.469 11.567 8.73-.163 23.042-2.136 40.073-3.64 51.878-3.325 30.498-44.923 64.674-82.289 117.41-37.221 55.444-18.078 116.958 38.428 160.547 9.84 7.59 35.846 13.947 32.819 22.152-5.412 9.518-63.439-11.4-93.255-45.898-38.543-44.595-67.66-132.58 58.834-209.485 11.796-11.313 22.56-16.529 34.204-47.581 2.532-6.752 3.884-32.762 3.332-57.752m23.36-23.738c2.657.848 9.039 4.981 10.607 8.38 2.496 9.918 1.555 100.59-2.52 117.322-3.53 34.068-55.823 74.878-51.901 133.788 4.696 70.552 49.523 96.221 45.685 113.005-14.188 10.113-79.14-60.276-77.483-117.638-.22-68.502 60.083-80.652 71.172-151.2 2.437-25.108 2.09-89.549 4.44-103.657m15.425 367.717c-31.018-62.637-28.484-123.814-8.896-179.443 10.969-30.556 24.288-50.144 15.865-148.275 0 0 10.636-.606 11.047 4.058.17 56.37.37 56.603 44.557 84.81 38.408 24.002 90.45 55.78 97.756 105.01 9.55 64.355-23.482 120.017-97.756 150.465-25.123 13.851-14.151-10.202-62.573-16.625" data-iconColor="Pod"/></svg>
